tools/download-figma-icons/icons/outlined-medium/account.svg

<svg width="24" height="24" viewBox="0 0 24 24" fill="none" xmlns="http://www.w3.org/2000/svg">
<path fill-rule="evenodd" clip-rule="evenodd" d="M8.25037 6.75C8.25037 4.68225 9.93262 3 12.0004 3C14.0681 3 15.7504 4.68225 15.7504 6.75C15.7504 8.81775 14.0681 10.5 12.0004 10.5C9.93262 10.5 8.25037 8.81775 8.25037 6.75ZM6.75037 6.75C6.75037 9.64425 9.10612 12 12.0004 12C14.8946 12 17.2504 9.64425 17.2504 6.75C17.2504 3.85575 14.8946 1.5 12.0004 1.5C9.10612 1.5 6.75037 3.85575 6.75037 6.75ZM19.4497 20.2515H4.54649C4.65149 19.4565 4.98674 18.138 6.04499 17.028C7.32749 15.6833 9.32924 15.0015 11.9962 15.0015C14.6565 15.0015 16.6567 15.6788 17.9407 17.016C18.9997 18.1178 19.341 19.4498 19.4497 20.2515ZM3.75149 21.7515H20.2485C20.649 21.7515 20.9782 21.4373 20.9977 21.0375L20.9977 21.0374C21.0023 20.92 21.109 18.1638 19.041 15.9953C17.463 14.3408 15.093 13.5015 11.9962 13.5015C8.90324 13.5015 6.53549 14.34 4.95974 15.993C2.89094 18.1623 2.9977 20.9201 3.00224 21.0374L3.00224 21.0375C3.02174 21.4373 3.35099 21.7515 3.75149 21.7515Z" fill="black"/>
</svg>

<svg xmlns="http://www.w3.org/2000/svg" width="24" height="24" fill="none" viewBox="0 0 24 24"><path fill="currentColor" fill-rule="evenodd" d="M8.25 6.75A3.754 3.754 0 0 1 12 3a3.754 3.754 0 0 1 3.75 3.75A3.754 3.754 0 0 1 12 10.5a3.754 3.754 0 0 1-3.75-3.75m-1.5 0A5.257 5.257 0 0 0 12 12a5.257 5.257 0 0 0 5.25-5.25A5.257 5.257 0 0 0 12 1.5a5.257 5.257 0 0 0-5.25 5.25m12.7 13.502H4.546c.105-.796.44-2.114 1.499-3.224 1.282-1.345 3.284-2.026 5.951-2.026 2.66 0 4.66.677 5.945 2.014 1.059 1.102 1.4 2.434 1.509 3.236m-15.699 1.5H20.25c.4 0 .73-.315.749-.714.004-.118.111-2.874-1.957-5.043-1.578-1.654-3.948-2.493-7.045-2.493-3.093 0-5.46.838-7.036 2.491-2.07 2.17-1.962 4.927-1.958 5.044.02.4.349.715.75.715" clip-rule="evenodd"/></svg>
